app/dist/common/images/stem.svg

<svg fill="none" height="18" viewBox="0 0 18 18" width="18" xmlns="http://www.w3.org/2000/svg"><path d="m0 0h18v18h-18z" fill="#f0f3fa"/><path d="m8.7486 3h.54c3.1602.2274 5.553 2.619 5.7114 5.7936v.42c-.1596 3.1656-2.544 5.574-5.7036 5.7864h-.615c-3.1644-.2202-5.4936-2.6352-5.6814-5.7936v-.42c.1788-3.183 2.5704-5.5776 5.7486-5.7864z" fill="#bd9a5f"/><path d="m7.33105 7.45978c.2838-.171.2202-.5676-.0042-.7128-.6618-.4284-2.244.3006-1.833 1.2588.3204.7458 1.4658 1.107 1.074 2.13182-.2814.7344-1.1418 1.1694-1.9002 1.2516-.4494.0492-.954-.0648-1.1982-.462-.288-.4692.003-1.07822.501-1.25582.1764-.063.3714-.0648.513.072.3606.34922-.225.96722-.45.63662-.012-.0176-.0094-.0326.0078-.045.0644-.0476.0972-.1128.0984-.1956.00012-.0144-.0031-.0286-.00938-.0416-.00629-.013-.01548-.0243-.02685-.0331-.01138-.0088-.02464-.0149-.03876-.0178-.01411-.0028-.02869-.0024-.04261.0013-.3366.0894-.3828.5394-.1884.7722.6906.8262 3.0378-.3246 1.9506-1.48562-.4068-.4344-.9744-.8502-.906-1.5006.0894-.855.9576-1.4046 1.7772-1.4814.3882-.036.873.0204 1.0812.378.279.4776-.0978 1.197-.6918 1.1286-.564-.0654-.3336-.8394.1014-.705.1332.0408.1854.1512.1542.2826-.00089.00402-.0006.00823.00082.01211.00143.00388.00393.00724.0072.00968.00327.00243.00716.00383.01117.00401.00402.00018.00799-.00086.01141-.003z" fill="#000"/><path d="m11.2539 8.30822c.2604-.2808.657-.648 1.062-.5994.1936.0236.2778.13939.2526.34739-.004.0328.0064.03821.0312.01621.2292-.2034.5478-.4326.8406-.4644.9114-.0984-.093 1.39379-.216 1.62959-.0666.1266-.1056.26761.0708.31621.02.0056.039.00339.057-.00661.4692-.26759.9114-.92519 1.1754-1.38419.0057-.01026.0145-.01846.0251-.02349.0106-.00502.0225-.00663.0341-.00459.0117.00203.0224.00761.0308.01596s.0141.01908.0162.03072c.0212.1168.0026.22459-.0558.32339-.2814.474-1.044 1.58879-1.7148 1.3962-.8478-.243.6978-1.60799.342-1.84319-.0172-.0112-.036-.0148-.0564-.0108-.6276.1254-1.1118 1.09979-1.2948 1.64519-.0232.0704-.0082.13.045.1788.0164.0156.0162.0308-.0006.0456-.138.12199-.279.18119-.423.17759-.3726-.0084-.1866-.45119-.087-.62278.1956-.338.388-.6778.5772-1.0194.075-.1344.027-.2952-.1554-.234-.6264.2082-1.131 1.09919-1.3242 1.6848-.0068.02039-.003.03879.0114.05519l.069.07859c.018.0204.0158.0382-.0066.0534-.1788.1248-.66001.2622-.64621-.13079.0012-.0292-.01-.035-.0336-.0174-.3204.24119-1.413.73799-1.5642.06239-.00106-.00458-.00332-.00883-.00654-.01229-.00321-.00345-.00727-.00599-.01175-.00734s-.0092-.00146-.01369-.00033c-.00449.00114-.00857.00348-.01182.00677-.24.23399-.921.68219-1.2564.44279-.1488-.1068-.1826-.2546-.1014-.44339.2-.4664.4938-.988.8814-1.5648.0256-.0376.016-.05299-.0288-.04619l-.4272.0636c-.00422.00055-.00853.00002-.0125-.00154-.00396-.00157-.00745-.00411-.01011-.00737-.00266-.00327-.00441-.00716-.00508-.01128-.00066-.00411-.00022-.00833.00129-.01221.1098-.2976.3684-.33841.6504-.32461.0236.0012.0406-.0088.051-.03l.2928-.58739c.0104-.0212.0074-.0406-.009-.0582-.213-.225.7446-.3792.5016.1266-.0724.15-.1516.2964-.2376.4392-.0128.0208-.0072.0314.0168.0318.1816.0044.3576-.0206.528-.075.0284-.0092.0394.0006.033.02939-.0858.372-.468.3372-.7566.3666-.0204.002-.0356.01201-.0456.03-.322.5612-.5916 1.049-.8088 1.4634-.0624.1192-.0492.21239.0396.27959.018.0136.0378.0166.0594.009.2216-.076.4146-.19258.579-.34978.0652-.0628.1228-.15481.1728-.27601.2712-.657.8904-1.44299 1.63981-1.57739.324-.0582.4614.2046.3708.4734-.1698.5034-.88141.82979-1.37221.87899-.0204.002-.0356.01181-.0456.0294-.1746.2958-.1734.77879.3312.6438.4398-.1176.72301-.3414.97741-.7452.0954-.1512.7434-1.1262.54-1.2366-.0063-.00336-.0115-.00837-.0151-.01448s-.0055-.0131-.0054-.0202c0-.0071.002-.01405.0058-.02009.0037-.00605.009-.01097.0153-.01423.1458-.0774.6294-.14459.5334.17281-.0112.0368-.0488.1182-.1128.2442-.0156.0308-.0118.0336.0114.0084zm-1.2258-.1686c-.32641.0828-.69901.50579-.89641.84059-.014.0236-.0076.0328.0192.0276.2772-.0534 1.06141-.402 1.01941-.77039-.0019-.01624-.0072-.03189-.0157-.04589-.0084-.014-.0197-.02604-.0332-.0353-.0135-.00927-.0288-.01554-.0449-.01841-.016-.00286-.0326-.00225-.0484.0018z" fill="#000"/><path d="m9.13123 8.98021c.1974-.3348.57-.7578.89637-.8406.0159-.00404.0324-.00465.0485-.00179.0161.00287.0314.00914.0448.0184.0135.00927.0248.0213.0333.03531.0084.014.0137.02965.0156.04588.042.3684-.74217.717-1.01937.7704-.0268.0052-.0332-.004-.0192-.0276z" fill="#bd9a5f"/><g fill="#000"><path clip-rule="evenodd" d="m7.21953 3.84592c3.02757-1.10832 6.16897.73464 7.03907 3.79776.0011.0039.0032.00744.006.01026.0029.00282.0064.00482.0103.00581.0038.00098.0078.0009.0117-.00022.0038-.00112.0072-.00325.01-.00617.0134-.01411.0166-.03527.0095-.06349-.3853-1.48662-1.2185-2.6306-2.4995-3.43196-3.20782-2.00802-7.48665-.0659-8.17657 3.68591-.08773.47686-.11815.97469-.09128 1.49347.00118.02822.01403.03547.03852.02177.02302-.01276.01943-.09271.01739-.13807-.00037-.00838-.0007-.01558-.00079-.02095-.02489-2.41072 1.39348-4.53725 3.62566-5.35412zm7.01407 6.50658c-1.3123 4.8033-7.45874 5.5724-9.96475 1.3175-.00188-.0032-.00463-.0058-.00792-.0074-.00329-.0017-.00698-.0023-.01061-.0019-.00364.0005-.00707.002-.00988.0044s-.00488.0056-.00596.0091c-.01189.0368.00084.0526.01556.0707.00584.0072.01199.0148.01703.0243.47853.9069 1.1483 1.6142 2.00932 2.1217 3.51719 2.0721 7.94891-.3405 8.19251-4.4853.006-.10641-.0065-.10863-.0373-.00665-.0539.17785-.0897.38571-.1224.575-.0249.14405-.0479.27735-.0756.37855z" fill-rule="evenodd"/><path d="m6 11h7v1h-7z" opacity=".5"/></g></svg>

<!-- by TradingView --><svg width="18" height="18" viewBox="0 0 18 18" fill="none" xmlns="http://www.w3.org/2000/svg">
<rect width="18" height="18" fill="#F0F3FA"/>
<path d="M8.7486 3H9.2886C12.4488 3.2274 14.8416 5.619 15 8.7936V9.2136C14.8404 12.3792 12.456 14.7876 9.2964 15H8.6814C5.517 14.7798 3.1878 12.3648 3 9.2064V8.7864C3.1788 5.6034 5.5704 3.2088 8.7486 3Z" fill="#BD9A5F"/>
<path d="M7.33105 7.45978C7.61485 7.28878 7.55125 6.89218 7.32685 6.74698C6.66505 6.31858 5.08285 7.04758 5.49385 8.00578C5.81425 8.75158 6.95965 9.11278 6.56785 10.1376C6.28645 10.872 5.42605 11.307 4.66765 11.3892C4.21825 11.4384 3.71365 11.3244 3.46945 10.9272C3.18145 10.458 3.47245 9.84898 3.97045 9.67138C4.14685 9.60838 4.34185 9.60658 4.48345 9.74338C4.84405 10.0926 4.25845 10.7106 4.03345 10.38C4.02145 10.3624 4.02405 10.3474 4.04125 10.335C4.10565 10.2874 4.13845 10.2222 4.13965 10.1394C4.13977 10.125 4.13655 10.1108 4.13027 10.0978C4.12398 10.0848 4.11479 10.0735 4.10342 10.0647C4.09204 10.0559 4.07878 10.0498 4.06466 10.0469C4.05055 10.0441 4.03597 10.0445 4.02205 10.0482C3.68545 10.1376 3.63925 10.5876 3.83365 10.8204C4.52425 11.6466 6.87145 10.4958 5.78425 9.33478C5.37745 8.90038 4.80985 8.48458 4.87825 7.83418C4.96765 6.97918 5.83585 6.42958 6.65545 6.35278C7.04365 6.31678 7.52845 6.37318 7.73665 6.73078C8.01565 7.20838 7.63885 7.92778 7.04485 7.85938C6.48085 7.79398 6.71125 7.01998 7.14625 7.15438C7.27945 7.19518 7.33165 7.30558 7.30045 7.43698C7.29956 7.441 7.29985 7.44521 7.30127 7.44909C7.3027 7.45297 7.3052 7.45633 7.30847 7.45877C7.31174 7.4612 7.31563 7.4626 7.31964 7.46278C7.32366 7.46296 7.32763 7.46192 7.33105 7.45978Z" fill="black"/>
<path d="M11.2539 8.30822C11.5143 8.02742 11.9109 7.66022 12.3159 7.70882C12.5095 7.73242 12.5937 7.84821 12.5685 8.05621C12.5645 8.08901 12.5749 8.09442 12.5997 8.07242C12.8289 7.86902 13.1475 7.63982 13.4403 7.60802C14.3517 7.50962 13.3473 9.00181 13.2243 9.23761C13.1577 9.36421 13.1187 9.50522 13.2951 9.55382C13.3151 9.55942 13.3341 9.55721 13.3521 9.54721C13.8213 9.27962 14.2635 8.62202 14.5275 8.16302C14.5332 8.15276 14.542 8.14456 14.5526 8.13953C14.5632 8.13451 14.5751 8.1329 14.5867 8.13494C14.5984 8.13697 14.6091 8.14255 14.6175 8.1509C14.6259 8.15925 14.6316 8.16998 14.6337 8.18162C14.6549 8.29842 14.6363 8.40621 14.5779 8.50501C14.2965 8.97901 13.5339 10.0938 12.8631 9.90121C12.0153 9.65821 13.5609 8.29322 13.2051 8.05802C13.1879 8.04682 13.1691 8.04322 13.1487 8.04722C12.5211 8.17262 12.0369 9.14701 11.8539 9.69241C11.8307 9.76281 11.8457 9.82241 11.8989 9.87121C11.9153 9.88681 11.9151 9.90201 11.8983 9.91681C11.7603 10.0388 11.6193 10.098 11.4753 10.0944C11.1027 10.086 11.2887 9.64321 11.3883 9.47162C11.5839 9.13362 11.7763 8.79382 11.9655 8.45222C12.0405 8.31782 11.9925 8.15702 11.8101 8.21822C11.1837 8.42642 10.6791 9.31741 10.4859 9.90302C10.4791 9.92341 10.4829 9.94181 10.4973 9.95821L10.5663 10.0368C10.5843 10.0572 10.5821 10.075 10.5597 10.0902C10.3809 10.215 9.89969 10.3524 9.91349 9.95941C9.91469 9.93021 9.90349 9.92441 9.87989 9.94201C9.55949 10.1832 8.46689 10.68 8.31569 10.0044C8.31463 9.99982 8.31237 9.99557 8.30915 9.99211C8.30594 9.98866 8.30188 9.98612 8.2974 9.98477C8.29292 9.98342 8.2882 9.98331 8.28371 9.98444C8.27922 9.98558 8.27514 9.98792 8.27189 9.99121C8.03189 10.2252 7.35089 10.6734 7.01549 10.434C6.86669 10.3272 6.83289 10.1794 6.91409 9.99061C7.11409 9.52421 7.40789 9.00261 7.79549 8.42581C7.82109 8.38821 7.81149 8.37282 7.76669 8.37962L7.33949 8.44322C7.33527 8.44377 7.33096 8.44324 7.32699 8.44168C7.32303 8.44011 7.31954 8.43757 7.31688 8.43431C7.31422 8.43104 7.31247 8.42715 7.3118 8.42303C7.31114 8.41892 7.31158 8.4147 7.31309 8.41082C7.42289 8.11322 7.68149 8.07241 7.96349 8.08621C7.98709 8.08741 8.00409 8.07741 8.01449 8.05621L8.30729 7.46882C8.31769 7.44762 8.31469 7.42822 8.29829 7.41062C8.08529 7.18562 9.04289 7.03142 8.79989 7.53722C8.72749 7.68722 8.64829 7.83362 8.56229 7.97642C8.54949 7.99722 8.55509 8.00782 8.57909 8.00822C8.76069 8.01262 8.93669 7.98762 9.10709 7.93322C9.13549 7.92402 9.14649 7.93382 9.14009 7.96261C9.05429 8.33461 8.67209 8.29981 8.38349 8.32921C8.36309 8.33121 8.34789 8.34122 8.33789 8.35921C8.01589 8.92041 7.74629 9.40821 7.52909 9.82261C7.46669 9.94181 7.47989 10.035 7.56869 10.1022C7.58669 10.1158 7.60649 10.1188 7.62809 10.1112C7.84969 10.0352 8.04269 9.91862 8.20709 9.76142C8.27229 9.69862 8.32989 9.60661 8.37989 9.48541C8.65109 8.82841 9.27029 8.04242 10.0197 7.90802C10.3437 7.84982 10.4811 8.11262 10.3905 8.38142C10.2207 8.88482 9.50909 9.21121 9.01829 9.26041C8.99789 9.26241 8.98269 9.27222 8.97269 9.28981C8.79809 9.58561 8.79929 10.0686 9.30389 9.93361C9.74369 9.81601 10.0269 9.59221 10.2813 9.18841C10.3767 9.03721 11.0247 8.06221 10.8213 7.95181C10.815 7.94845 10.8098 7.94344 10.8062 7.93733C10.8026 7.93122 10.8007 7.92423 10.8008 7.91713C10.8008 7.91003 10.8028 7.90308 10.8066 7.89704C10.8103 7.89099 10.8156 7.88607 10.8219 7.88281C10.9677 7.80541 11.4513 7.73822 11.3553 8.05562C11.3441 8.09242 11.3065 8.17382 11.2425 8.29982C11.2269 8.33062 11.2307 8.33342 11.2539 8.30822ZM10.0281 8.13962C9.70169 8.22242 9.32909 8.64541 9.13169 8.98021C9.11769 9.00381 9.12409 9.01301 9.15089 9.00781C9.42809 8.95441 10.2123 8.60581 10.1703 8.23742C10.1684 8.22118 10.1631 8.20553 10.1546 8.19153C10.1462 8.17753 10.1349 8.16549 10.1214 8.15623C10.1079 8.14696 10.0926 8.14069 10.0765 8.13782C10.0605 8.13496 10.0439 8.13557 10.0281 8.13962Z" fill="black"/>
<path d="M9.13123 8.98021C9.32863 8.64541 9.70123 8.22241 10.0276 8.13961C10.0435 8.13557 10.06 8.13496 10.0761 8.13782C10.0922 8.14069 10.1075 8.14696 10.1209 8.15622C10.1344 8.16549 10.1457 8.17752 10.1542 8.19153C10.1626 8.20553 10.1679 8.22118 10.1698 8.23741C10.2118 8.60581 9.42763 8.95441 9.15043 9.00781C9.12363 9.01301 9.11723 9.00381 9.13123 8.98021Z" fill="#BD9A5F"/>
<path fill-rule="evenodd" clip-rule="evenodd" d="M7.21953 3.84592C10.2471 2.7376 13.3885 4.58056 14.2586 7.64368C14.2597 7.64758 14.2618 7.65112 14.2646 7.65394C14.2675 7.65676 14.271 7.65876 14.2749 7.65975C14.2787 7.66073 14.2827 7.66065 14.2866 7.65953C14.2904 7.65841 14.2938 7.65628 14.2966 7.65336C14.31 7.63925 14.3132 7.61809 14.3061 7.58987C13.9208 6.10325 13.0876 4.95927 11.8066 4.15791C8.59878 2.14989 4.31995 4.09201 3.63003 7.84382C3.5423 8.32068 3.51188 8.81851 3.53875 9.33729C3.53993 9.36551 3.55278 9.37276 3.57727 9.35906C3.60029 9.3463 3.5967 9.26635 3.59466 9.22099C3.59429 9.21261 3.59396 9.20541 3.59387 9.20004C3.56898 6.78932 4.98735 4.66279 7.21953 3.84592ZM14.2336 10.3525C12.9213 15.1558 6.77486 15.9249 4.26885 11.67C4.26697 11.6668 4.26422 11.6642 4.26093 11.6626C4.25764 11.6609 4.25395 11.6603 4.25032 11.6607C4.24668 11.6612 4.24325 11.6627 4.24044 11.6651C4.23763 11.6675 4.23556 11.6707 4.23448 11.6742C4.22259 11.711 4.23532 11.7268 4.25004 11.7449C4.25588 11.7521 4.26203 11.7597 4.26707 11.7692C4.7456 12.6761 5.41537 13.3834 6.27639 13.8909C9.79358 15.963 14.2253 13.5504 14.4689 9.4056C14.4749 9.29919 14.4624 9.29697 14.4316 9.39895C14.3777 9.5768 14.3419 9.78466 14.3092 9.97395C14.2843 10.118 14.2613 10.2513 14.2336 10.3525Z" fill="black"/>
<rect opacity="0.5" x="6" y="11" width="7" height="1" fill="black"/>
</svg>
